X: 2973
T: Basque
R: jig
M: 6/8
K: Amajor
e|:{fg}a2 e {fg}a2 e|(cd)e A2e|(fe)f (gf)g|(ag)f e2e|
{fg}a2 e {fg}a2 e|(cd)e A2e|(ag)f (ef)e|(dc)B A2e:|
A2c (ef)e|(ef)e (cB)A|d2f a2a|(ag)f e2e|
A2c (ef)e|(ef)e (cB)A|(ag)f (ef)e|(dc)B A2e:|
aaa (.a2.f)|aaa (.a2.f)|aaa (.b2.a)|g2f g2e|
ggg (.g2.e)|ggg (.g2.e)|ggg (.a2.g)|f2e f2A:|
d2f a2d'|a2f d2d|e3 ede|f3 d2 (A|d2) f a2d'|
a2f d2d|e3 edc|d3 d2 z:|

